img/arrow-2.svg

<svg fill="none" height="13" viewBox="0 0 17 13" width="17" xmlns="http://www.w3.org/2000/svg"><path d="m15.8872 6.88088c.3307-.33063.3307-.86668 0-1.19731l-5.3879-5.387903c-.3306-.3306282-.86666-.3306282-1.19729 0-.33062.330629-.33062.866683 0 1.197313l4.78929 4.78925-4.78929 4.78927c-.33062.3306-.33062.8667 0 1.1973.33063.3306.86669.3306 1.19729 0zm-14.14466-1.44528c-.46758 0-.846631.37905-.846631.84663s.379051.84662.846631.84662zm13.54606 0h-13.54606v1.69325h13.54606z" fill="#0080ff"/></svg>

<svg width="17" height="13" viewBox="0 0 17 13" fill="none" xmlns="http://www.w3.org/2000/svg">
<path d="M15.8872 6.88088C16.2179 6.55025 16.2179 6.0142 15.8872 5.68357L10.4993 0.295667C10.1687 -0.0349612 9.63264 -0.0349612 9.30201 0.295667C8.97139 0.626296 8.97139 1.16235 9.30201 1.49298L14.0913 6.28223L9.30201 11.0715C8.97139 11.4021 8.97139 11.9382 9.30201 12.2688C9.63264 12.5994 10.1687 12.5994 10.4993 12.2688L15.8872 6.88088ZM1.74254 5.4356C1.27496 5.4356 0.895909 5.81465 0.895909 6.28223C0.895909 6.74981 1.27496 7.12885 1.74254 7.12885V5.4356ZM15.2886 5.4356L1.74254 5.4356V7.12885L15.2886 7.12885V5.4356Z" fill="#0080FF"/>
</svg>
